X:244
T:Dalegarth
C:Brian Jenkins
L:1/4
M:2/2
R:Reel
S:Colin Hume's website,  colinhume.com  - chords can also be printed below the stave.
Q:1/2=90
N:For the dance "The Octagon" by Charles Bolton, 1993.
N:Play the last four bars (from the sign) as an introduction.
K:F
P:A
[| C | "Bb"DF "C"BA/G/ | "F"cF- "Dm"FC | "Gm"DF "C7"F3/D/ | "F"C2- "Dm"CC | "Gm"DF "C"Bc/d/ | "F"cf- "Dm"fa | "Gm7"ag "/"f3/g/ | "A7"a2- "/"aa/g/ |
P:B
"Dm"fd "/"df/d/ | "Am"cA "/"AC | "Gm"DF "/"F3/G/ | "A7"A2- "/"AA/G/ | "Dm"FD "/"DF/D/ | "F"CA, "A7"A,A/G/ | "Dm"FD "Gm"DC | "Dm"D2- "C7"DC |
P:C
"F"Ac/d/ "/"Ac/d/ | "Dm"fd/c/ "F7"AG/F/ | "Bb"DF "/"F2 | "A"^CE "/"E2 | "Dm"DF/G/ "/"Ac/d/ | "Bb"fd/c/ "G7"AG/F/ | "C"Gc "/"c2 | "Gm7"GC "C7"C2 |
P:D
"F"Ac/d/ "/"Ac/d/ | "Dm"fd/c/ "F7"AG/F/ | "Gm"GG "F"Ac | "Gm"d2- "C"d !segno!d/e/ | "Dm"fd "Bb"dc/A/ | "Am"cA "F7"AC | "Gm7"DF "C7"F3/D/ | "F"F2 "/"F |]

